X: 2069
M: 3/2
L: 1/8
K: Dm
c2 c3B |\
=B2G2 A=Bcd =B3c | c6 :: g2 g3f |\
e2e2 a4 gfed | ^c2 A4 a2 g3a |\
^c2 A2 =B^cd2 d3^c |
d2 d4 =B2 G4 |\
c2 A4 d2 B4 | g2 e4 a2 g3a |\
e2c2 def2 f3e | f2 F4 d2 B3c |\
E2C2 DEFG G3F | HF6 |]


